assets/media/icons/Adobe.svg

<?xml version="1.0" standalone="no"?>
<!DOCTYPE svg PUBLIC "-//W3C//DTD SVG 1.0//EN" "http://www.w3.org/TR/2001/REC-SVG-20010904/DTD/svg10.dtd">
<svg xmlns="http://www.w3.org/2000/svg" xmlns:xlink="http://www.w3.org/1999/xlink" id="body_1" width="1024" height="768">

<g transform="matrix(3.2820516 0 0 3.2820516 118.153854 -0)">
	<g>
		<g>
			<g>
				<g>
                    <path d="M42.5 0L197.5 0C 221 0 240 19 240 42.5L240 42.5L240 191.5C 240 215 221 234 197.5 234L197.5 234L42.5 234C 19 234 0 215 0 191.5L0 191.5L0 42.5C 0 19 19 0 42.5 0z" stroke="none" fill="#330000" fill-rule="nonzero" />
				</g>
			</g>
		</g>
		<g>
			<g>
                <path d="M116 140L78.8 140L71.200005 163.5C 71.00001 164.4 70.200005 165 69.3 164.9L69.3 164.9L50.500004 164.9C 49.400005 164.9 49.100002 164.29999 49.400005 163.09999L49.400005 163.09999L81.600006 70.399994C 81.90001 69.399994 82.200005 68.299995 82.600006 67.09999C 83.00001 64.99999 83.200005 62.79999 83.200005 60.59999C 83.100006 60.09999 83.50001 59.59999 84.00001 59.499992L84.00001 59.499992L84.30001 59.499992L109.90001 59.499992C 110.70001 59.499992 111.100006 59.79999 111.20001 60.29999L111.20001 60.29999L147.70001 163.29999C 148.00002 164.4 147.70001 164.9 146.70001 164.9L146.70001 164.9L125.80001 164.9C 125.10001 165 124.40001 164.5 124.20001 163.79999L124.20001 163.79999L116.000015 139.99998L116 140zM84.6 119.7L110 119.7C 109.4 117.6 108.6 115.1 107.7 112.5C 106.799995 109.8 105.899994 106.9 105 103.9C 104 100.8 103.1 97.8 102.1 94.700005C 101.1 91.600006 100.2 88.700005 99.4 85.8C 98.6 83 97.9 80.4 97.200005 78L97.200005 78L97.00001 78C 96.100006 82.3 95.00001 86.6 93.600006 90.9C 92.100006 95.700005 90.600006 100.700005 89.00001 105.700005C 87.600006 110.8 86.100006 115.50001 84.600006 119.700005z" stroke="none" fill="#FF9A00" fill-rule="nonzero" />
                <path d="M170 77C 166.7 77.1 163.5 75.8 161.1 73.5C 158.8 71 157.6 67.7 157.70001 64.3C 157.6 60.9 158.90001 57.700005 161.30002 55.4C 163.70003 53.1 166.90002 51.9 170.20001 51.9C 174.1 51.9 177.1 53.100002 179.30002 55.4C 181.50002 57.800003 182.70001 61 182.60002 64.3C 182.70003 67.700005 181.50002 71 179.10002 73.5C 176.80002 75.9 173.40002 77.2 170.00002 77L170.00002 77L170 77zM158.8 163.8L158.8 86.8C 158.8 85.8 159.2 85.4 160.1 85.4L160.1 85.4L179.90001 85.4C 180.8 85.4 181.20001 85.9 181.20001 86.8L181.20001 86.8L181.20001 163.8C 181.20001 164.90001 180.80002 165.40001 179.90001 165.40001L179.90001 165.40001L160.3 165.40001C 159.3 165.40001 158.8 164.8 158.8 163.8z" stroke="none" fill="#FF9A00" fill-rule="nonzero" />
			</g>
		</g>
	</g>
</g>
</svg>

<?xml version="1.0" encoding="UTF-8"?>
<svg style="enable-background:new 0 0 240 234" version="1.1" viewBox="0 0 240 234" xml:space="preserve" xmlns="http://www.w3.org/2000/svg">
<title>Adobe Illustrator CC logo</title>
<style type="text/css">
	.st0{fill:#330000;}
	.st1{fill:#FF9A00;}
</style>
<g id="vlpa">
	<g id="vlpb">
		<g id="vlpc">
			<g id="vlpd">
				<path class="st0" d="M42.5,0h155C221,0,240,19,240,42.5v149c0,23.5-19,42.5-42.5,42.5h-155C19,234,0,215,0,191.5v-149      C0,19,19,0,42.5,0z"/>
			</g>
		</g>
	</g>
	<g id="vlpe">
		<g id="vlpf">
			<path class="st1" d="m116 140h-37.2l-7.6 23.5c-0.2 0.9-1 1.5-1.9 1.4h-18.8c-1.1 0-1.4-0.6-1.1-1.8l32.2-92.7c0.3-1 0.6-2.1 1-3.3 0.4-2.1 0.6-4.3 0.6-6.5-0.1-0.5 0.3-1 0.8-1.1h0.3 25.6c0.8 0 1.2 0.3 1.3 0.8l36.5 103c0.3 1.1 0 1.6-1 1.6h-20.9c-0.7 0.1-1.4-0.4-1.6-1.1l-8.2-23.8zm-31.4-20.3h25.4c-0.6-2.1-1.4-4.6-2.3-7.2-0.9-2.7-1.8-5.6-2.7-8.6-1-3.1-1.9-6.1-2.9-9.2s-1.9-6-2.7-8.9c-0.8-2.8-1.5-5.4-2.2-7.8h-0.2c-0.9 4.3-2 8.6-3.4 12.9-1.5 4.8-3 9.8-4.6 14.8-1.4 5.1-2.9 9.8-4.4 14z"/>
			<path class="st1" d="m170 77c-3.3 0.1-6.5-1.2-8.9-3.5-2.3-2.5-3.5-5.8-3.4-9.2-0.1-3.4 1.2-6.6 3.6-8.9s5.6-3.5 8.9-3.5c3.9 0 6.9 1.2 9.1 3.5 2.2 2.4 3.4 5.6 3.3 8.9 0.1 3.4-1.1 6.7-3.5 9.2-2.3 2.4-5.7 3.7-9.1 3.5zm-11.2 86.8v-77c0-1 0.4-1.4 1.3-1.4h19.8c0.9 0 1.3 0.5 1.3 1.4v77c0 1.1-0.4 1.6-1.3 1.6h-19.6c-1 0-1.5-0.6-1.5-1.6z"/>
		</g>
	</g>
</g>
</svg>
